src/icons/package-upgrade.svg

<?xml version="1.0" encoding="UTF-8"?>
<svg xmlns="http://www.w3.org/2000/svg" xmlns:xlink="http://www.w3.org/1999/xlink" width="33.507999" height="32" viewBox="0 0 33.507999 32" version="1.1">
<g id="surface1">
<path style=" stroke:none;fill-rule:nonzero;fill:rgb(25.098041%,25.098041%,25.490198%);fill-opacity:1;" d="M 20.121094 27.410156 L 20.113281 27.394531 L 13.398438 27.394531 L 13.390625 27.410156 L 11.980469 30.324219 L 10.050781 30.324219 L 10.050781 32 L 23.457031 32 L 23.457031 30.324219 L 21.527344 30.324219 Z M 31.800781 4.335938 L 6.988281 4.335938 L 6.988281 6.011719 L 31.800781 6.011719 C 31.816406 6.011719 31.832031 6.027344 31.832031 6.046875 L 31.832031 24.441406 C 31.832031 24.460938 31.816406 24.476562 31.800781 24.476562 L 10.027344 24.476562 L 9.882812 24.894531 L 9.449219 26.152344 L 31.800781 26.152344 C 32.746094 26.148438 33.507812 25.382812 33.507812 24.441406 L 33.507812 6.046875 C 33.507812 5.101562 32.742188 4.335938 31.800781 4.335938 M 5.359375 26.152344 L 5.796875 24.894531 L 5.9375 24.476562 L 1.710938 24.476562 C 1.703125 24.476562 1.695312 24.472656 1.6875 24.464844 C 1.679688 24.460938 1.675781 24.449219 1.675781 24.441406 L 1.675781 6.046875 C 1.675781 6.027344 1.691406 6.011719 1.710938 6.011719 L 2.71875 6.011719 L 2.71875 4.335938 L 1.710938 4.335938 C 0.765625 4.335938 0 5.101562 0 6.046875 L 0 24.441406 C 0 25.386719 0.765625 26.152344 1.710938 26.152344 Z M 10.3125 18.433594 L 16.335938 21.914062 L 16.335938 16.019531 L 10.3125 12.539062 Z M 17.175781 21.914062 L 23.199219 18.433594 L 23.199219 12.539062 L 17.175781 16.015625 Z M 10.730469 11.816406 L 16.753906 15.292969 L 22.777344 11.816406 L 16.753906 8.335938 Z M 8.070312 19.402344 L 4.078125 23.398438 L 6.65625 23.398438 C 6.65625 23.867188 6.605469 24.339844 6.5 24.796875 L 6.476562 24.894531 C 6.371094 25.328125 6.214844 25.75 6.015625 26.152344 C 5.9375 26.308594 5.847656 26.460938 5.753906 26.609375 C 5.636719 26.800781 5.503906 26.980469 5.359375 27.15625 C 5.3125 27.21875 5.257812 27.277344 5.207031 27.335938 C 5.183594 27.359375 5.160156 27.382812 5.140625 27.410156 C 4.792969 27.78125 4.359375 28.136719 3.855469 28.230469 C 3.632812 28.269531 3.371094 28.253906 3.207031 28.097656 C 3.0625 27.957031 3.011719 27.734375 3.039062 27.542969 C 3.058594 27.429688 3.097656 27.320312 3.148438 27.214844 C 3.167969 27.175781 3.289062 26.917969 3.328125 26.917969 L 1.632812 26.875 C 1.632812 26.875 1.507812 27.214844 1.460938 27.398438 L 1.460938 27.40625 C 1.375 27.765625 1.355469 28.160156 1.5 28.511719 C 1.628906 28.828125 1.886719 29.074219 2.183594 29.234375 C 2.675781 29.492188 3.253906 29.59375 3.804688 29.609375 C 5.464844 29.660156 7.070312 28.8125 8.078125 27.507812 C 8.101562 27.476562 8.125 27.441406 8.148438 27.410156 C 8.21875 27.3125 8.285156 27.214844 8.347656 27.117188 C 8.449219 26.953125 8.546875 26.785156 8.636719 26.609375 C 8.710938 26.460938 8.78125 26.308594 8.847656 26.152344 C 9.019531 25.753906 9.15625 25.332031 9.25 24.894531 C 9.285156 24.757812 9.3125 24.617188 9.332031 24.476562 C 9.339844 24.453125 9.34375 24.425781 9.347656 24.402344 C 9.355469 24.351562 9.363281 24.304688 9.367188 24.253906 C 9.410156 23.972656 9.433594 23.683594 9.441406 23.398438 L 12.066406 23.398438 Z M 3.421875 6.011719 L 3.46875 6.433594 C 3.507812 6.746094 3.554688 7.058594 3.628906 7.363281 C 3.664062 7.511719 3.707031 7.660156 3.757812 7.804688 C 3.910156 8.269531 4.148438 8.714844 4.472656 9.082031 C 4.722656 9.371094 5.242188 9.90625 5.664062 9.667969 C 5.792969 9.585938 5.882812 9.457031 5.914062 9.308594 C 5.953125 9.160156 5.953125 9.007812 5.949219 8.859375 C 5.945312 8.355469 5.925781 7.859375 5.925781 7.363281 C 5.925781 6.90625 5.941406 6.457031 5.992188 6.011719 C 6.007812 5.875 6.027344 5.734375 6.054688 5.59375 C 6.125 5.167969 6.242188 4.75 6.417969 4.335938 C 6.464844 4.226562 6.515625 4.117188 6.574219 4.007812 C 6.628906 3.898438 6.695312 3.773438 6.773438 3.652344 C 6.921875 3.429688 7.101562 3.207031 7.3125 3.082031 C 7.527344 2.9375 7.808594 2.9375 8.023438 3.082031 C 8.039062 3.09375 8.058594 3.105469 8.074219 3.117188 C 8.152344 3.167969 8.222656 3.230469 8.285156 3.296875 C 8.3125 3.324219 8.433594 3.5 8.464844 3.5 L 11.03125 3.496094 C 11 3.496094 10.84375 3.179688 10.816406 3.140625 C 10.804688 3.121094 10.792969 3.101562 10.777344 3.082031 C 10.714844 2.980469 10.648438 2.882812 10.578125 2.785156 C 10.414062 2.5625 10.238281 2.351562 10.050781 2.152344 C 9.578125 1.625 8.992188 1.210938 8.335938 0.941406 C 7.933594 0.78125 7.503906 0.671875 7.070312 0.671875 C 6.324219 0.664062 5.5625 0.953125 4.980469 1.414062 C 4.972656 1.417969 4.96875 1.425781 4.960938 1.429688 C 4.417969 1.867188 4.03125 2.441406 3.777344 3.082031 C 3.703125 3.269531 3.640625 3.457031 3.585938 3.652344 C 3.558594 3.757812 3.535156 3.863281 3.511719 3.96875 C 3.488281 4.089844 3.464844 4.214844 3.449219 4.335938 C 3.40625 4.609375 3.386719 4.882812 3.382812 5.160156 C 3.378906 5.304688 3.382812 5.449219 3.390625 5.59375 C 3.398438 5.734375 3.410156 5.875 3.421875 6.011719 M 3.421875 6.011719 "/>
</g>
</svg>

<svg role="img" viewBox="0 0 33.508 32" xmlns="http://www.w3.org/2000/svg"><path d="m20.121 27.41-.008-.015h-6.715l-.007.015-1.41 2.914h-1.93V32h13.406v-1.676h-1.93ZM31.8 4.336H6.989v1.676h24.813c.015 0 .031.015.031.035V24.44c0 .02-.016.036-.031.036H10.027l-.144.418-.434 1.257h22.352a1.71 1.71 0 0 0 1.707-1.71V6.046a1.71 1.71 0 0 0-1.708-1.71M5.36 26.152l.437-1.257.14-.418H1.712a.035.035 0 0 1-.035-.036V6.047c0-.02.015-.035.035-.035H2.72V4.336H1.71A1.71 1.71 0 0 0 0 6.046v18.395a1.71 1.71 0 0 0 1.71 1.711Zm4.953-7.718 6.023 3.48V16.02l-6.023-3.48Zm6.863 3.48 6.023-3.48v-5.895l-6.023 3.477ZM10.73 11.816l6.024 3.477 6.023-3.477-6.023-3.48Zm-2.66 7.586-3.992 3.996h2.578a6.253 6.253 0 0 1-.156 1.399l-.023.098a5.95 5.95 0 0 1-.461 1.257 5.304 5.304 0 0 1-.262.457c-.117.192-.25.371-.395.547-.046.063-.101.121-.152.18a.898.898 0 0 0-.066.074c-.348.371-.782.727-1.286.82-.222.04-.484.024-.648-.132-.144-.141-.195-.364-.168-.555a1.199 1.199 0 0 1 .11-.328c.019-.04.14-.297.18-.297l-1.696-.043s-.125.34-.172.523v.008c-.086.36-.106.754.039 1.106.129.316.387.562.684.722.492.258 1.07.36 1.62.375 1.66.051 3.266-.797 4.274-2.101.024-.031.047-.067.07-.098.07-.098.137-.195.2-.293.101-.164.199-.332.289-.508.074-.148.144-.3.21-.457.173-.398.31-.82.403-1.257.035-.137.063-.278.082-.418.008-.024.012-.051.016-.075.007-.05.015-.097.02-.148.042-.281.066-.57.073-.856h2.625ZM3.422 6.012l.047.422c.039.312.086.625.16.93.035.148.078.296.129.44.152.466.39.91.715 1.278.25.29.77.824 1.191.586a.578.578 0 0 0 .25-.36c.04-.148.04-.3.035-.449-.004-.504-.023-1-.023-1.496 0-.457.015-.906.066-1.351.016-.137.035-.278.063-.418.07-.426.187-.844.363-1.258.047-.11.098-.219.156-.328.055-.11.121-.235.2-.356.148-.222.328-.445.539-.57a.634.634 0 0 1 .71 0c.016.012.036.023.051.035.078.051.149.113.211.18.027.027.149.203.18.203l2.566-.004c-.031 0-.187-.316-.215-.355a.509.509 0 0 0-.039-.059 4.92 4.92 0 0 0-.199-.297 7.42 7.42 0 0 0-.527-.633A4.747 4.747 0 0 0 8.336.942c-.402-.16-.832-.27-1.266-.27-.746-.008-1.508.281-2.09.742-.007.004-.011.012-.02.016-.542.437-.929 1.011-1.183 1.652a5.427 5.427 0 0 0-.191.57c-.027.106-.05.211-.074.317a6.005 6.005 0 0 0-.063.367 5.956 5.956 0 0 0-.066.824c-.004.145 0 .29.008.434.007.14.02.281.03.418m0 0" style="stroke:none;fill-rule:nonzero;fill:rgb(25.098041%,25.098041%,25.490198%);fill-opacity:1"/></svg>
